assets/icons/24px/stroke/battery-horizontal-low-24px.svg

<svg width="24" height="24" viewBox="0 0 24 24" fill="none" xmlns="http://www.w3.org/2000/svg">
<path d="M3 11C3 9.11438 3 8.17157 3.58579 7.58579C4.17157 7 5.11438 7 7 7H15C16.8856 7 17.8284 7 18.4142 7.58579C19 8.17157 19 9.11438 19 11V13C19 14.8856 19 15.8284 18.4142 16.4142C17.8284 17 16.8856 17 15 17H7C5.11438 17 4.17157 17 3.58579 16.4142C3 15.8284 3 14.8856 3 13V11Z" stroke="white" stroke-width="2" stroke-linecap="round" stroke-linejoin="round"/>
<path d="M19 12.5V11.5C19 10.9477 19.4477 10.5 20 10.5C20.5523 10.5 21 10.9477 21 11.5V12.5C21 13.0523 20.5523 13.5 20 13.5C19.4477 13.5 19 13.0523 19 12.5Z" fill="white" stroke="white" stroke-width="2" stroke-linecap="round" stroke-linejoin="round"/>
<path fill-rule="evenodd" clip-rule="evenodd" d="M6.5 9C7.05228 9 7.5 9.44772 7.5 10V14C7.5 14.5523 7.05228 15 6.5 15C5.94772 15 5.5 14.5523 5.5 14V10C5.5 9.44772 5.94772 9 6.5 9Z" fill="white"/>
</svg>

<svg width="24" height="24" fill="none" xmlns="http://www.w3.org/2000/svg"><path d="M3 11c0-1.886 0-2.828.586-3.414C4.172 7 5.114 7 7 7h8c1.886 0 2.828 0 3.414.586C19 8.172 19 9.114 19 11v2c0 1.886 0 2.828-.586 3.414C17.828 17 16.886 17 15 17H7c-1.886 0-2.828 0-3.414-.586C3 15.828 3 14.886 3 13v-2z" stroke="#fff" stroke-width="2" stroke-linecap="round" stroke-linejoin="round"/><path d="M19 12.5v-1a1 1 0 1 1 2 0v1a1 1 0 1 1-2 0z" fill="#fff" stroke="#fff" stroke-width="2" stroke-linecap="round" stroke-linejoin="round"/><path fill-rule="evenodd" clip-rule="evenodd" d="M6.5 9a1 1 0 0 1 1 1v4a1 1 0 1 1-2 0v-4a1 1 0 0 1 1-1z" fill="#fff"/></svg>
